X: 300
T: Bestenigâr Seyir
C: Erol Bingöl
O: Turkey
F: http://compmusic.upf.edu/node/140
N: bestenigar--seyir--sofyan--1--erol_bingol
N: makam= bestenigar
N: form= seyir
N: usul= sofyan = 4/4
M: 4/4
L: 1/16
K: C _2/4B _3/4d  
Q: 1/4=60
%%MIDI tuningsystem comma53
B4 c4 c4 d2e2  | d2c2 c2B2 c3B A4  | \
w:   |   | 
B2c2 d2e2 f4 g2a2  | g2f2 f2e2 e3d c4  | 
w:   |   | 
d4 c2B2 c2e2 d2c2  | c2B2 B2A2 A3G ^F4  | \
w:   |   | 
^F2G2 A2B2 c4 B2A2  | 
w:   | 
A2G2 ^F2^E2 F8  | |


